src/lib/packages/icons/src/assets/filled/home-dash-activity.svg

<svg width="24" height="24" viewBox="0 0 24 24" fill="none" xmlns="http://www.w3.org/2000/svg">
<path fill-rule="evenodd" clip-rule="evenodd" d="M20.27 9.06205L13.588 3.56901C12.665 2.81001 11.334 2.81001 10.411 3.56901L3.72898 9.06205C3.16798 9.52305 2.90096 10.251 3.03196 10.965L4.48704 18.9471C4.70404 20.1351 5.73902 20.9991 6.94602 20.9991H17.052C18.26 20.9991 19.2949 20.1351 19.5119 18.9471L20.967 10.964C21.098 10.252 20.831 9.52305 20.27 9.06205ZM16.53 12.349L14.295 14.584C14.004 14.876 13.6139 15.038 13.1999 15.038C12.7859 15.038 12.397 14.877 12.104 14.585L10.833 13.3171L8.52903 15.549C8.38303 15.695 8.191 15.7691 7.999 15.7691C7.807 15.7691 7.61497 15.696 7.46897 15.549C7.17597 15.256 7.17597 14.7811 7.46897 14.4881L9.70103 12.256C10.305 11.652 11.2869 11.652 11.8919 12.255L13.1629 13.523L15.469 11.289C15.762 10.996 16.237 10.996 16.53 11.289C16.823 11.582 16.823 12.056 16.53 12.349Z" fill="currentColor"/>
</svg>

<svg xmlns="http://www.w3.org/2000/svg" width="24" height="24" fill="none"><path fill="currentColor" fill-rule="evenodd" d="m20.27 9.062-6.682-5.493a2.501 2.501 0 0 0-3.177 0L3.729 9.062a1.996 1.996 0 0 0-.697 1.903l1.455 7.982A2.5 2.5 0 0 0 6.946 21h10.106a2.501 2.501 0 0 0 2.46-2.052l1.455-7.983a1.996 1.996 0 0 0-.697-1.902Zm-3.74 3.287-2.235 2.235a1.538 1.538 0 0 1-1.095.454c-.414 0-.803-.161-1.096-.453l-1.271-1.268-2.304 2.232a.748.748 0 0 1-1.06 0 .75.75 0 0 1 0-1.06l2.232-2.233a1.552 1.552 0 0 1 2.19-.001l1.272 1.268 2.306-2.234a.75.75 0 0 1 1.061 1.06Z" clip-rule="evenodd"/></svg>
